X:58
T:John MacEachinn's Big Tune
T:Porst Mohr Iain Ic Eachinn
R:Reel
S:MacDonald - Skye Collection
N:pg.42
M:C
L:1/8
K:A Mix
a|A<AeA cAAe|dBcA B=GGB|AaeA cAfe|d=GB<B e2A:|
|:a|eA c2 eAcA|d=GB<B dGBG|eA c2 eAcA|d=GB<B e2A:|
|:d|c2a2 c<cae|=g2 ef B<BdB|A<A a2 cAec|=g2 dB e2 Ad|
c2a2 c<cae|=g2 ef G<GdB|a>cc>a c>cec|g2 dB e2A||a|
e2 ae cAAB|d2 =Gd BGGB|e2 Aa cAec|d=GB<B e2A:|
|:a|A<AcA dBcA|B<BcA dGGB|AacA dBcA|B<Bed cAA:|
e|A<AeA =g2 e<a|c<c=ge dGGB|AaeA =g2 e<a|c<cac e2 =g2|
a=gfe g2 e<a|c<c=ge dGGB|=g2 ea cAea|gedB e2A||
